dist/svgs/xiaomi.svg

<svg xmlns="http://www.w3.org/2000/svg" viewBox="0 0 512 512"><path d="M222 423h-76V228q0-6 5-6h67q4 0 4 5v196zm290 0h-78V97q0-2-.5-3t-.5-3h79v332zM0 93h288q44 0 68 36 12 17 12 37v251q0 5-.5 5.5t-5.5.5h-66q-5 0-5-5V185q0-15-14-15H83q-5 0-5 6v237q0 8-1.5 9t-9.5 1H0V93z"/></svg>

<?xml version="1.0" encoding="UTF-8" standalone="no"?><svg   xmlns:svg="http://www.w3.org/2000/svg"   xmlns="http://www.w3.org/2000/svg"   version="1.1"   width="512"   height="512"   viewBox="0 0 512 512">  <path     d="M222 423H146V417V228Q146 222 151 222H218Q222 222 222 227V419V423zM512 423H484H439H434V416V97Q434 95 433.5 94T433 91H512V423zM0 93H7H288Q332 93 356 129Q368 146 368 166V182V417Q368 422 367.5 422.5T362 423H296Q291 423 291 418V185Q291 170 277 170H83Q78 170 78 176V413Q78 421 76.5 422T67 423H5H0V93z"     id="xiaomi" /></svg>
